X:1
T:A Mighty Fortress Is Our God
T:A Mighty Fortress Is Our God
T:Martin Luther, 1529; tr. Fredrick H. Hedge 1852
T:Martin Luther, 1529, alt.; harm. Johann S. Bach, 1685-1750
T:A9
T:Public domain. Based on a score from Hymnary.org.
Z:Public domain. Based on a score from Hymnary.org.
%%score ( 1 2 ) ( 3 4 )
L:1/8
M:4/4
K:C
V:1 treble nm="SOPRANO ALTO"
V:2 treble 
V:3 bass nm="TENOR BASS"
V:4 bass 
V:1
 c2 | c2 c2 GA B2 | cB A2 !breath!G2 c2 | B2 A2 G2 A2 | (FE D2) C4 || c2 c2 c2 GA | B2 cB A2 G2 | %7
w: 1.A|might- y for- * tress|is * our God, a|bul- wark nev- er|fail- * * ing;|our help- er he, *|a- mid * the flood|
w: 2.Did|we in our * own|strength * con- fide, our|striv- ing would be|los- * * ing,|were not the right *|Man on * our side,|
w: 3.And|though this world, * with|dev- * ils filled, should|threat- en to un-|do * * us,|we will not fear, *|for God * has willed|
w: 4.That|Word a- bove * all|earth- * ly powers— no|thanks to them— a-|bid- * * eth;|the Spir- it and *|the gifts * are ours|
 c2 B2 A2 G2 | A2 (FE D2) !fermata!C2 ||"^SWELL" C2 G2 A2 G2 | ^F2 G6 | C2 G2 G2 A2 | %12
w: of mor- tal ills|pre- vail- * * ing.|For still our an-|cient foe|does seek to work|
w: the Man of God's|own choos- * * ing.|You ask who that|may be?|Christ Je- sus, it|
w: his truth to tri-|umph through _ _ us.|The prince of dark-|ness grim,|we trem- ble not|
w: through him who with|us sid- * * eth.|Let goods and kin-|dred go,|this mor- tal life|
 B2 !breath!c6 |"^GREAT" B2 c2 B2 A2 | A2 G6 | A2 A2 G2 A2 | F2 !breath!E6 | c2 B2 A2 G2 | %18
w: us woe;|his craft and power|are great,|and armed with cru-|el hate,|* earth is not|
w: is he;|Lord Sa- ba- oth|his name,|from age to age|the same;|* he must win|
w: for him;|his rage we can|en- dure,|for lo! his doom|is sure;|* lit- tle word|
w: al- so;|the bod- y they|may kill:|God's truth a- bid-|eth still;|* king- dom is|
 A2 FE D2 !fermata!C8 |] %19
w: his e- * * qual.|
w: the bat- * * tle.|
w: shall fell _ _ him.|
w: for- ev- * * er!|
V:2
 E2 | C2 E2 D2 E2 | C2 DC B,2 C2 | E2 C2 C2 C2 | (A,2 B,2) C4 || E2 C2 E2 D2 | E2 C2 DC B,2 | %7
w: |||||||
w: |||||||
w: |||||||
w: |||||||
 C2 E2 C2 C2 | C2 (A,2 B,2) C2 || C2 E2 E2 D2 | D2 D6 | C2 D2 E2 F2 | F2 E6 | E2 C2 D2 E2 | %14
w: |||||||
w: |||||||
w: |||||||
w: |||||||
 DC B,6 | D2 C2 E2 E2 | D2 B,6 | C2 E2 C2 C2 | C2 (A,2 B,2) x8 |] %19
w: |||on * * *||
w: |||and * * *||
w: |||one * * *||
w: |||his * * *||
V:3
 G,2 | G,2 G,2 B,2 G,2 | A,2 ^F,2 G,2 E,2 | G,2 F,2 E,2 E,2 | (F,2 G,F,) E,4 || G,2 G,2 G,2 B,2 | %6
 G,2 A,2 F,2 G,2 | E,2 G,2 F,2 E,2 | E,2 (F,2 G,F,) E,2 ||"_SEN. PEDALE" E,2 G,2 C2 B,2 | A,2 B,6 | %11
 A,2 G,2 C2 C2 | D2 C6 | G,2 A,2 G,2 G,2 | ^F,2 G,6 | F,2 A,2 C2 A,2 | A,2 ^G,6 | A,2 G,2 A,2 E,2 | %18
 E,2 (F,2 G,F,) [C,E,]8 |] %19
V:4
 C,2 | E,2 C,2 G,2 E,2 | A,,2 D,2 G,,2 A,,2 | E,2 F,2 C,2 A,,2 | (D,2 G,,2) C,4 || %5
 C,2 E,2 C,2 G,2 | E,2 A,,2 D,2 G,,2 | A,,2 E,2 F,2 C,2 | A,,2 (D,2 G,,2) C,2 || %9
 C,2 C,2 A,,2 B,,C, | D,2 G,,6 | A,,2 B,,2 C,2 F,E, | D,2 A,,6 | E,2 A,,2 B,,2 C,2 | D,2 G,,6 | %15
 D,2 F,2 C,2 ^C,2 | D,2 E,6 | A,,2 E,2 F,2 C,2 | A,,2 (D,2 G,,2) x8 |] %19

